src/lib/packages/icons/src/assets/filled/face-laugh.svg

<svg xmlns="http://www.w3.org/2000/svg" width="24" height="24" fill="none"><path fill="currentColor" d="M12 2C6.48 2 2 6.48 2 12s4.48 10 10 10 10-4.48 10-10S17.52 2 12 2ZM9 7.25c.72 0 1.25.74 1.25 1.75S9.72 10.75 9 10.75 7.75 10.01 7.75 9 8.28 7.25 9 7.25ZM12 18c-2.01 0-3.67-1.48-3.96-3.41-.05-.31.19-.59.5-.59h6.92c.31 0 .54.28.5.59A3.991 3.991 0 0 1 12 18Zm3-7.25c-.72 0-1.25-.74-1.25-1.75s.53-1.75 1.25-1.75 1.25.74 1.25 1.75-.53 1.75-1.25 1.75Z"/></svg>

<svg width="24" height="24" viewBox="0 0 24 24" fill="none" xmlns="http://www.w3.org/2000/svg">
<path d="M12 2C6.48 2 2 6.48 2 12C2 17.52 6.48 22 12 22C17.52 22 22 17.52 22 12C22 6.48 17.52 2 12 2ZM9 7.25C9.72 7.25 10.25 7.99 10.25 9C10.25 10.01 9.72 10.75 9 10.75C8.28 10.75 7.75 10.01 7.75 9C7.75 7.99 8.28 7.25 9 7.25ZM12 18C9.99 18 8.33001 16.52 8.04001 14.59C7.99001 14.28 8.23001 14 8.54001 14H15.46C15.77 14 16 14.28 15.96 14.59C15.68 16.52 14.02 18 12 18ZM15 10.75C14.28 10.75 13.75 10.01 13.75 9C13.75 7.99 14.28 7.25 15 7.25C15.72 7.25 16.25 7.99 16.25 9C16.25 10.01 15.72 10.75 15 10.75Z" fill="currentColor"/>
</svg>
